symbols/web/beenhere/materialsymbolsrounded/beenhere_wght300fill1_40px.svg

<svg xmlns="http://www.w3.org/2000/svg" height="40" width="40"><path d="M20 36.792q-.333 0-.646-.104-.312-.105-.604-.313L8.333 28.542q-.416-.292-.625-.771-.208-.479-.208-1.021V6.792q0-1.084.771-1.854.771-.771 1.854-.771h19.75q1.083 0 1.854.771.771.77.771 1.854V26.75q0 .542-.208 1.021-.209.479-.625.771L21.25 36.375q-.292.208-.604.313-.313.104-.646.104Zm-1.75-12.917q.25 0 .479-.083.229-.084.438-.292l7.166-7.167q.334-.333.334-.75 0-.416-.334-.75-.333-.333-.75-.312-.416.021-.75.312l-6.583 6.625-3.125-3.083q-.125-.125-.437-.063-.313.063-.605.146-.291.084-.458.104-.167.021.042-.187-.334.333-.334.729 0 .396.334.729l3.666 3.667q.209.208.438.292.229.083.479.083Z"/></svg>

<svg xmlns="http://www.w3.org/2000/svg" height="40" width="40"><path d="M20 36.792Q19.667 36.792 19.354 36.688Q19.042 36.583 18.75 36.375L8.333 28.542Q7.917 28.25 7.708 27.771Q7.5 27.292 7.5 26.75V6.792Q7.5 5.708 8.271 4.938Q9.042 4.167 10.125 4.167H29.875Q30.958 4.167 31.729 4.938Q32.5 5.708 32.5 6.792V26.75Q32.5 27.292 32.292 27.771Q32.083 28.25 31.667 28.542L21.25 36.375Q20.958 36.583 20.646 36.688Q20.333 36.792 20 36.792ZM18.25 23.875Q18.5 23.875 18.729 23.792Q18.958 23.708 19.167 23.5L26.333 16.333Q26.667 16 26.667 15.583Q26.667 15.167 26.333 14.833Q26 14.5 25.583 14.521Q25.167 14.542 24.833 14.833L18.25 21.458L15.125 18.375Q15 18.25 14.688 18.312Q14.375 18.375 14.083 18.458Q13.792 18.542 13.625 18.562Q13.458 18.583 13.667 18.375Q13.333 18.708 13.333 19.104Q13.333 19.5 13.667 19.833L17.333 23.5Q17.542 23.708 17.771 23.792Q18 23.875 18.25 23.875Z"/></svg>
